X: 324
T: Bezme Gel Ey...
C: Ahmet Avni Konuk
O: Turkey
F: http://compmusic.upf.edu/node/140
N: kucek--kupe--duyek--bezme--ahmet_avni_konuk
N: makam= kucek
N: form= kupe
N: usul= duyek = 8/4
M: 8/4
L: 1/16
K: C _1/4B _7/8d  
Q: 1/4=57
%%MIDI tuningsystem comma53
z4 g8 g2_7/8a2 g2f2 e2f2 g2a2 g2a2  | \
w:  Bez me  *  gel  *  *  *  ey   | 
g2f2 _7/8a4 g4 f2e2 e2f2 e2_3/4d2 e3d c4  | 
w:  *  *  mâh_ *  ı  *  rû *  *  *  yim   | 
z4 c2_3/4d2 c4 d4 e8 e2f2 e2f2  | \
w:  sen  *  *  he mân  zevk   | 
e2_3/4d2 c2d2 c4 _2/4B2A2 B2c2 B2A2 A6z2  | 
w:  *  *  ey *  *  le  *  tek    | 
z4 A2G2 A4 _2/4B4 c4 _3/4d4 d2c2 B2A2  | \
w:  Mıt *  *  rı bân  *  çal  | 
G4 A2_2/4B2 A4 B4 c4 =d4 d2c2 B2A2  | 
w:  *  sın  *  *  ça ğır *  sın   | 
G4 c2=d2 c4 d4 e2f2 e2d2 c4 _2/4B4  | \
w:  *  oy *  *  na sın  *  *  *  rak  | 
A4 =d2d2 d4 c2_2/4B2 B2A2 B2A2 A6z2  | 
w:  *  kas  *  *  Kû *  çek    | 
|


